images/3234093.svg

<?xml version="1.0" encoding="UTF-8"?>
<svg xmlns="http://www.w3.org/2000/svg" xmlns:xlink="http://www.w3.org/1999/xlink" width="300pt" height="300pt" viewBox="0 0 300 300" version="1.1">
<defs>
<g>
<symbol overflow="visible" id="glyph0-0">
<path style="stroke:none;" d="M 0.796875 2.828125 L 0.796875 -11.28125 L 8.796875 -11.28125 L 8.796875 2.828125 Z M 1.703125 1.9375 L 7.90625 1.9375 L 7.90625 -10.390625 L 1.703125 -10.390625 Z M 1.703125 1.9375 "/>
</symbol>
<symbol overflow="visible" id="glyph0-1">
<path style="stroke:none;" d="M 1.578125 -11.671875 L 3.703125 -11.671875 L 8.875 -1.90625 L 8.875 -11.671875 L 10.40625 -11.671875 L 10.40625 0 L 8.28125 0 L 3.109375 -9.765625 L 3.109375 0 L 1.578125 0 Z M 1.578125 -11.671875 "/>
</symbol>
<symbol overflow="visible" id="glyph0-2">
<path style="stroke:none;" d="M 1.578125 -11.671875 L 3.15625 -11.671875 L 3.15625 -6.890625 L 8.890625 -6.890625 L 8.890625 -11.671875 L 10.46875 -11.671875 L 10.46875 0 L 8.890625 0 L 8.890625 -5.5625 L 3.15625 -5.5625 L 3.15625 0 L 1.578125 0 Z M 1.578125 -11.671875 "/>
</symbol>
<symbol overflow="visible" id="glyph0-3">
<path style="stroke:none;" d="M 1.578125 -11.671875 L 8.28125 -11.671875 L 8.28125 -10.34375 L 3.15625 -10.34375 L 3.15625 -6.90625 L 7.78125 -6.90625 L 7.78125 -5.578125 L 3.15625 -5.578125 L 3.15625 0 L 1.578125 0 Z M 1.578125 -11.671875 "/>
</symbol>
</g>
</defs>
<g id="surface48857">
<rect x="0" y="0" width="300" height="300" style="fill:rgb(100%,100%,100%);fill-opacity:1;stroke:none;"/>
<path style="fill:none;stroke-width:1.2;stroke-linecap:butt;stroke-linejoin:miter;stroke:rgb(0%,0%,0%);stroke-opacity:1;stroke-miterlimit:10;" d="M 31.941406 167.992188 L 49.300781 176.015625 "/>
<path style="fill:none;stroke-width:1.2;stroke-linecap:butt;stroke-linejoin:miter;stroke:rgb(0%,0%,100%);stroke-opacity:1;stroke-miterlimit:10;" d="M 49.300781 176.015625 L 66.660156 184.039062 "/>
<path style="fill:none;stroke-width:1.2;stroke-linecap:butt;stroke-linejoin:miter;stroke:rgb(0%,0%,100%);stroke-opacity:1;stroke-miterlimit:10;" d="M 66.660156 184.039062 L 82.289062 173.015625 "/>
<path style="fill:none;stroke-width:1.2;stroke-linecap:butt;stroke-linejoin:miter;stroke:rgb(0%,0%,0%);stroke-opacity:1;stroke-miterlimit:10;" d="M 82.289062 173.015625 L 97.917969 161.996094 "/>
<path style=" stroke:none;fill-rule:nonzero;fill:rgb(100%,100%,100%);fill-opacity:1;" d="M 54.660156 174.539062 L 78.660156 174.539062 L 78.660156 193.539062 L 54.660156 193.539062 Z M 54.660156 174.539062 "/>
<g style="fill:rgb(0%,0%,100%);fill-opacity:1;">
  <use xlink:href="#glyph0-1" x="54.660156" y="189.390625"/>
  <use xlink:href="#glyph0-2" x="66.628906" y="189.390625"/>
</g>
<path style="fill:none;stroke-width:1.2;stroke-linecap:butt;stroke-linejoin:miter;stroke:rgb(0%,0%,0%);stroke-opacity:1;stroke-miterlimit:10;" d="M 97.917969 161.996094 L 96.1875 142.949219 "/>
<path style="fill:none;stroke-width:1.2;stroke-linecap:butt;stroke-linejoin:miter;stroke:rgb(0%,0%,100%);stroke-opacity:1;stroke-miterlimit:10;" d="M 96.1875 142.949219 L 94.457031 123.902344 "/>
<path style="fill:none;stroke-width:1.2;stroke-linecap:butt;stroke-linejoin:miter;stroke:rgb(0%,0%,0%);stroke-opacity:1;stroke-miterlimit:10;" d="M 106.535156 157.371094 L 105.152344 142.132812 "/>
<path style="fill:none;stroke-width:1.2;stroke-linecap:butt;stroke-linejoin:miter;stroke:rgb(0%,0%,100%);stroke-opacity:1;stroke-miterlimit:10;" d="M 105.152344 142.132812 L 103.765625 126.894531 "/>
<path style="fill:none;stroke-width:1.2;stroke-linecap:butt;stroke-linejoin:miter;stroke:rgb(0%,0%,0%);stroke-opacity:1;stroke-miterlimit:10;" d="M 132.640625 178.042969 L 97.917969 161.996094 "/>
<path style="fill:none;stroke-width:1.2;stroke-linecap:butt;stroke-linejoin:miter;stroke:rgb(0%,0%,100%);stroke-opacity:1;stroke-miterlimit:10;" d="M 94.457031 123.902344 L 110.085938 112.878906 "/>
<path style="fill:none;stroke-width:1.2;stroke-linecap:butt;stroke-linejoin:miter;stroke:rgb(0%,0%,0%);stroke-opacity:1;stroke-miterlimit:10;" d="M 110.085938 112.878906 L 125.714844 101.855469 "/>
<path style=" stroke:none;fill-rule:nonzero;fill:rgb(100%,100%,100%);fill-opacity:1;" d="M 88.457031 114.402344 L 100.457031 114.402344 L 100.457031 133.402344 L 88.457031 133.402344 Z M 88.457031 114.402344 "/>
<g style="fill:rgb(0%,0%,100%);fill-opacity:1;">
  <use xlink:href="#glyph0-1" x="88.457031" y="129.253906"/>
</g>
<path style="fill:none;stroke-width:1.2;stroke-linecap:butt;stroke-linejoin:miter;stroke:rgb(0%,0%,0%);stroke-opacity:1;stroke-miterlimit:10;" d="M 125.714844 101.855469 L 143.074219 109.878906 "/>
<path style="fill:none;stroke-width:1.2;stroke-linecap:butt;stroke-linejoin:miter;stroke:rgb(0%,0%,100%);stroke-opacity:1;stroke-miterlimit:10;" d="M 143.074219 109.878906 L 160.433594 117.902344 "/>
<path style="fill:none;stroke-width:1.2;stroke-linecap:butt;stroke-linejoin:miter;stroke:rgb(0%,0%,0%);stroke-opacity:1;stroke-miterlimit:10;" d="M 125.410156 111.628906 L 139.300781 118.050781 "/>
<path style="fill:none;stroke-width:1.2;stroke-linecap:butt;stroke-linejoin:miter;stroke:rgb(0%,0%,100%);stroke-opacity:1;stroke-miterlimit:10;" d="M 139.300781 118.050781 L 153.1875 124.46875 "/>
<path style="fill:none;stroke-width:1.2;stroke-linecap:butt;stroke-linejoin:miter;stroke:rgb(0%,0%,100%);stroke-opacity:1;stroke-miterlimit:10;" d="M 160.433594 117.902344 L 162.167969 136.949219 "/>
<path style="fill:none;stroke-width:1.2;stroke-linecap:butt;stroke-linejoin:miter;stroke:rgb(0%,0%,0%);stroke-opacity:1;stroke-miterlimit:10;" d="M 162.167969 136.949219 L 163.898438 155.996094 "/>
<path style=" stroke:none;fill-rule:nonzero;fill:rgb(100%,100%,100%);fill-opacity:1;" d="M 154.433594 108.402344 L 166.433594 108.402344 L 166.433594 127.402344 L 154.433594 127.402344 Z M 154.433594 108.402344 "/>
<g style="fill:rgb(0%,0%,100%);fill-opacity:1;">
  <use xlink:href="#glyph0-1" x="154.433594" y="123.253906"/>
</g>
<path style="fill:none;stroke-width:1.2;stroke-linecap:butt;stroke-linejoin:miter;stroke:rgb(0%,0%,0%);stroke-opacity:1;stroke-miterlimit:10;" d="M 163.898438 155.996094 L 132.640625 178.042969 "/>
<path style="fill:none;stroke-width:1.2;stroke-linecap:butt;stroke-linejoin:miter;stroke:rgb(0%,0%,0%);stroke-opacity:1;stroke-miterlimit:10;" d="M 155.585938 150.847656 L 130.578125 168.484375 "/>
<path style="fill:none;stroke-width:1.2;stroke-linecap:butt;stroke-linejoin:miter;stroke:rgb(0%,0%,0%);stroke-opacity:1;stroke-miterlimit:10;" d="M 163.898438 155.996094 L 198.617188 172.046875 "/>
<path style="fill:none;stroke-width:1.2;stroke-linecap:butt;stroke-linejoin:miter;stroke:rgb(0%,0%,0%);stroke-opacity:1;stroke-miterlimit:10;" d="M 198.617188 172.046875 L 202.082031 210.136719 "/>
<path style="fill:none;stroke-width:1.2;stroke-linecap:butt;stroke-linejoin:miter;stroke:rgb(0%,0%,0%);stroke-opacity:1;stroke-miterlimit:10;" d="M 207.929688 175.039062 L 210.699219 205.515625 "/>
<path style="fill:none;stroke-width:1.2;stroke-linecap:butt;stroke-linejoin:miter;stroke:rgb(0%,0%,0%);stroke-opacity:1;stroke-miterlimit:10;" d="M 229.875 150 L 198.617188 172.046875 "/>
<path style="fill:none;stroke-width:1.2;stroke-linecap:butt;stroke-linejoin:miter;stroke:rgb(0%,0%,0%);stroke-opacity:1;stroke-miterlimit:10;" d="M 202.082031 210.136719 L 236.800781 226.1875 "/>
<path style="fill:none;stroke-width:1.2;stroke-linecap:butt;stroke-linejoin:miter;stroke:rgb(0%,0%,0%);stroke-opacity:1;stroke-miterlimit:10;" d="M 236.800781 226.1875 L 268.058594 204.140625 "/>
<path style="fill:none;stroke-width:1.2;stroke-linecap:butt;stroke-linejoin:miter;stroke:rgb(0%,0%,0%);stroke-opacity:1;stroke-miterlimit:10;" d="M 234.742188 216.625 L 259.746094 198.992188 "/>
<path style="fill:none;stroke-width:1.2;stroke-linecap:butt;stroke-linejoin:miter;stroke:rgb(0%,0%,0%);stroke-opacity:1;stroke-miterlimit:10;" d="M 268.058594 204.140625 L 264.597656 166.046875 "/>
<path style="fill:none;stroke-width:1.2;stroke-linecap:butt;stroke-linejoin:miter;stroke:rgb(0%,0%,0%);stroke-opacity:1;stroke-miterlimit:10;" d="M 264.597656 166.046875 L 229.875 150 "/>
<path style="fill:none;stroke-width:1.2;stroke-linecap:butt;stroke-linejoin:miter;stroke:rgb(0%,0%,0%);stroke-opacity:1;stroke-miterlimit:10;" d="M 257.347656 172.613281 L 229.574219 159.773438 "/>
<path style="fill:none;stroke-width:1.2;stroke-linecap:butt;stroke-linejoin:miter;stroke:rgb(0%,0%,0%);stroke-opacity:1;stroke-miterlimit:10;" d="M 229.875 150 L 226.414062 111.90625 "/>
<path style="fill:none;stroke-width:1.2;stroke-linecap:butt;stroke-linejoin:miter;stroke:rgb(0%,0%,0%);stroke-opacity:1;stroke-miterlimit:10;" d="M 226.414062 111.90625 L 224.683594 92.859375 "/>
<path style="fill:none;stroke-width:1.2;stroke-linecap:butt;stroke-linejoin:miter;stroke:rgb(20%,80%,80%);stroke-opacity:1;stroke-miterlimit:10;" d="M 224.683594 92.859375 L 222.953125 73.8125 "/>
<path style="fill:none;stroke-width:1.2;stroke-linecap:butt;stroke-linejoin:miter;stroke:rgb(0%,0%,0%);stroke-opacity:1;stroke-miterlimit:10;" d="M 226.414062 111.90625 L 245.460938 110.175781 "/>
<path style="fill:none;stroke-width:1.2;stroke-linecap:butt;stroke-linejoin:miter;stroke:rgb(20%,80%,80%);stroke-opacity:1;stroke-miterlimit:10;" d="M 245.460938 110.175781 L 264.507812 108.445312 "/>
<path style="fill:none;stroke-width:1.2;stroke-linecap:butt;stroke-linejoin:miter;stroke:rgb(0%,0%,0%);stroke-opacity:1;stroke-miterlimit:10;" d="M 226.414062 111.90625 L 207.367188 113.636719 "/>
<path style="fill:none;stroke-width:1.2;stroke-linecap:butt;stroke-linejoin:miter;stroke:rgb(20%,80%,80%);stroke-opacity:1;stroke-miterlimit:10;" d="M 207.367188 113.636719 L 188.320312 115.371094 "/>
<path style=" stroke:none;fill-rule:nonzero;fill:rgb(100%,100%,100%);fill-opacity:1;" d="M 217.953125 64.3125 L 227.953125 64.3125 L 227.953125 83.3125 L 217.953125 83.3125 Z M 217.953125 64.3125 "/>
<g style="fill:rgb(20%,80%,80%);fill-opacity:1;">
  <use xlink:href="#glyph0-3" x="217.953125" y="79.164062"/>
</g>
<path style=" stroke:none;fill-rule:nonzero;fill:rgb(100%,100%,100%);fill-opacity:1;" d="M 259.507812 98.945312 L 269.507812 98.945312 L 269.507812 117.945312 L 259.507812 117.945312 Z M 259.507812 98.945312 "/>
<g style="fill:rgb(20%,80%,80%);fill-opacity:1;">
  <use xlink:href="#glyph0-3" x="259.507812" y="113.796875"/>
</g>
<path style=" stroke:none;fill-rule:nonzero;fill:rgb(100%,100%,100%);fill-opacity:1;" d="M 178.320312 105.871094 L 188.320312 105.871094 L 188.320312 124.871094 L 178.320312 124.871094 Z M 178.320312 105.871094 "/>
<g style="fill:rgb(20%,80%,80%);fill-opacity:1;">
  <use xlink:href="#glyph0-3" x="178.320312" y="120.722656"/>
</g>
</g>
</svg>

<svg xmlns="http://www.w3.org/2000/svg" xmlns:xlink="http://www.w3.org/1999/xlink" width="300pt" height="300pt" viewBox="0 0 300 300"><defs><symbol overflow="visible"><path d="M.797 2.828v-14.11h8V2.83zm.906-.89h6.203v-12.33H1.703zm0 0"/></symbol><symbol overflow="visible" id="a"><path d="M1.578-11.672h2.125l5.172 9.766v-9.766h1.53V0H8.282L3.11-9.766V0H1.577zm0 0"/></symbol><symbol overflow="visible" id="b"><path d="M1.578-11.672h1.578v4.78H8.89v-4.78h1.58V0H8.89v-5.563H3.157V0H1.578zm0 0"/></symbol><symbol overflow="visible" id="c"><path d="M1.578-11.672H8.28v1.328H3.157v3.438H7.78v1.328H3.157V0H1.578zm0 0"/></symbol></defs><g><path fill="#fff" d="M0 0h300v300H0z"/><path d="M31.94 167.992l17.36 8.024" stroke-width="1.2" stroke="#000" stroke-miterlimit="10" fill="none"/><path d="M49.3 176.016l17.36 8.023M66.66 184.04l15.63-11.024" stroke-width="1.2" stroke="#00f" stroke-miterlimit="10" fill="none"/><path d="M82.29 173.016l15.628-11.02" stroke-width="1.2" stroke="#000" stroke-miterlimit="10" fill="none"/><path d="M54.66 174.54h24v19h-24zm0 0" fill="#fff"/><g fill="#00f"><use xlink:href="#a" x="54.66" y="189.391"/><use xlink:href="#b" x="66.629" y="189.391"/></g><path d="M97.918 161.996l-1.73-19.047" stroke-width="1.2" stroke="#000" stroke-miterlimit="10" fill="none"/><path d="M96.188 142.95l-1.73-19.048" stroke-width="1.2" stroke="#00f" stroke-miterlimit="10" fill="none"/><path d="M106.535 157.37l-1.383-15.237" stroke-width="1.2" stroke="#000" stroke-miterlimit="10" fill="none"/><path d="M105.152 142.133l-1.386-15.238" stroke-width="1.2" stroke="#00f" stroke-miterlimit="10" fill="none"/><path d="M132.64 178.043L97.92 161.996" stroke-width="1.2" stroke="#000" stroke-miterlimit="10" fill="none"/><path d="M94.457 123.902l15.63-11.023" stroke-width="1.2" stroke="#00f" stroke-miterlimit="10" fill="none"/><path d="M110.086 112.88l15.63-11.025" stroke-width="1.2" stroke="#000" stroke-miterlimit="10" fill="none"/><path d="M88.457 114.402h12v19h-12zm0 0" fill="#fff"/><use xlink:href="#a" x="88.457" y="129.254" fill="#00f"/><path d="M125.715 101.855l17.36 8.024" stroke-width="1.2" stroke="#000" stroke-miterlimit="10" fill="none"/><path d="M143.074 109.88l17.36 8.022" stroke-width="1.2" stroke="#00f" stroke-miterlimit="10" fill="none"/><path d="M125.41 111.63l13.89 6.42" stroke-width="1.2" stroke="#000" stroke-miterlimit="10" fill="none"/><path d="M139.3 118.05l13.887 6.42M160.434 117.902l1.734 19.047" stroke-width="1.2" stroke="#00f" stroke-miterlimit="10" fill="none"/><path d="M162.168 136.95l1.73 19.046" stroke-width="1.2" stroke="#000" stroke-miterlimit="10" fill="none"/><path d="M154.434 108.402h12v19h-12zm0 0" fill="#fff"/><use xlink:href="#a" x="154.434" y="123.254" fill="#00f"/><path d="M163.898 155.996l-31.257 22.047M155.586 150.848l-25.008 17.636M163.898 155.996l34.72 16.05M198.617 172.047l3.465 38.09M207.93 175.04l2.77 30.476M229.875 150l-31.258 22.047M202.082 210.137l34.72 16.05M236.8 226.188l31.26-22.047M234.742 216.625l25.004-17.633M268.06 204.14l-3.462-38.093M264.598 166.047L229.875 150M257.348 172.613l-27.774-12.84M229.875 150l-3.46-38.094M226.414 111.906l-1.73-19.047" stroke-width="1.2" stroke="#000" stroke-miterlimit="10" fill="none"/><path d="M224.684 92.86l-1.73-19.047" stroke-width="1.2" stroke="#3cc" stroke-miterlimit="10" fill="none"/><path d="M226.414 111.906l19.047-1.73" stroke-width="1.2" stroke="#000" stroke-miterlimit="10" fill="none"/><path d="M245.46 110.176l19.048-1.73" stroke-width="1.2" stroke="#3cc" stroke-miterlimit="10" fill="none"/><path d="M226.414 111.906l-19.047 1.73" stroke-width="1.2" stroke="#000" stroke-miterlimit="10" fill="none"/><path d="M207.367 113.637l-19.047 1.734" stroke-width="1.2" stroke="#3cc" stroke-miterlimit="10" fill="none"/><path d="M217.953 64.313h10v19h-10zm0 0" fill="#fff"/><use xlink:href="#c" x="217.953" y="79.164" fill="#3cc"/><path d="M259.508 98.945h10v19h-10zm0 0" fill="#fff"/><use xlink:href="#c" x="259.508" y="113.797" fill="#3cc"/><path d="M178.32 105.87h10v19h-10zm0 0" fill="#fff"/><use xlink:href="#c" x="178.32" y="120.723" fill="#3cc"/></g></svg>
